svg/24/heart.svg

<svg width="24" height="24" viewBox="0 0 24 24" fill="currentColor" xmlns="http://www.w3.org/2000/svg"><path fill-rule="evenodd" clip-rule="evenodd" d="M12 7.94215L10.7736 6.20057C10.0471 5.16895 8.8516 4.5 7.5 4.5C5.29086 4.5 3.5 6.29086 3.5 8.5C3.5 11.0092 4.87491 13.3032 6.73275 15.2387C8.57389 17.1567 10.723 18.546 11.8834 19.223C11.96 19.2677 12.0399 19.2677 12.1166 19.223C13.277 18.546 15.4261 17.1567 17.2673 15.2387C19.1251 13.3032 20.5 11.0092 20.5 8.5C20.5 6.29086 18.7091 4.5 16.5 4.5C15.1484 4.5 13.9529 5.16895 13.2264 6.20057L12 7.94215ZM10.9582 4.22302C10.0135 3.45817 8.81025 3 7.5 3C4.46243 3 2 5.46243 2 8.5C2 14.6356 8.69245 19.098 11.1275 20.5186C11.6713 20.8358 12.3287 20.8358 12.8725 20.5186C15.3076 19.098 22 14.6356 22 8.5C22 5.46243 19.5376 3 16.5 3C15.1897 3 13.9865 3.45817 13.0418 4.22302C12.6452 4.54403 12.2943 4.91906 12 5.33692C11.7057 4.91906 11.3548 4.54403 10.9582 4.22302Z"/></svg>

<svg xmlns="http://www.w3.org/2000/svg" width="24" height="24" fill="currentColor" viewBox="0 0 24 24">
  <path fill-rule="evenodd" d="m12 7.942-1.226-1.741A4 4 0 0 0 3.5 8.5c0 2.508 1.375 4.802 3.233 6.738 1.84 1.918 3.99 3.307 5.15 3.984a.22.22 0 0 0 .234 0c1.16-.677 3.31-2.066 5.15-3.984 1.858-1.936 3.233-4.23 3.233-6.739a4 4 0 0 0-7.274-2.3L12 7.943Zm-1.042-3.719A5.5 5.5 0 0 0 2 8.5c0 6.136 6.692 10.598 9.127 12.019a1.719 1.719 0 0 0 1.745 0C15.309 19.098 22 14.636 22 8.5a5.5 5.5 0 0 0-10-3.163 5.53 5.53 0 0 0-1.042-1.114Z" clip-rule="evenodd"/>
</svg>
